Origami/48x48/apps/outlast.svg

<svg xmlns="http://www.w3.org/2000/svg" width="48" height="48" version="1.1" viewBox="0 0 48 48">
 <path style="opacity:0.2" d="M 24,5 C 13.797503,4.9999825 6.0001543,14.271904 6,25 6.0001543,35.728096 13.797503,45.000017 24,45 34.202497,45.000017 41.999846,35.728096 42,25 41.999846,14.271904 34.202497,4.9999825 24,5 Z"/>
 <path style="fill:#3a4b37" d="M 24,4 C 13.797503,3.9999825 6.0001543,13.271904 6,24 6.0001543,34.728096 13.797503,44.000017 24,44 34.202497,44.000017 41.999846,34.728096 42,24 41.999846,13.271904 34.202497,3.9999825 24,4 Z"/>
 <path style="opacity:0.2" d="M 24,9 A 13.999979,16.000263 0 0 0 10,25 13.999979,16.000263 0 0 0 24,41 13.999979,16.000263 0 0 0 38,25 13.999979,16.000263 0 0 0 24,9 Z m 0,6 a 6.9998001,9.9998896 0 0 1 7,10 6.9998001,9.9998896 0 0 1 -7,10 6.9998001,9.9998896 0 0 1 -7,-10 6.9998001,9.9998896 0 0 1 7,-10 z"/>
 <path style="fill:#a1eaa4" d="M 24 8 A 13.999979 16.000263 0 0 0 10 24 A 13.999979 16.000263 0 0 0 24 40 A 13.999979 16.000263 0 0 0 38 24 A 13.999979 16.000263 0 0 0 24 8 z M 24 14 A 6.9998001 9.9998896 0 0 1 31 24 A 6.9998001 9.9998896 0 0 1 24 34 A 6.9998001 9.9998896 0 0 1 17 24 A 6.9998001 9.9998896 0 0 1 24 14 z"/>
 <path style="opacity:0.1;fill:#ffffff" d="M 24 4 C 13.797503 3.9999825 6.0001543 13.271904 6 24 C 6.0000024 24.168297 6.0196181 24.33245 6.0234375 24.5 C 6.2630829 13.987065 13.957555 4.9999828 24 5 C 34.042445 4.9999828 41.736917 13.987065 41.976562 24.5 C 41.980382 24.33245 41.999998 24.168297 42 24 C 41.999846 13.271904 34.202497 3.9999825 24 4 z"/>
 <path style="opacity:0.1;fill:#ffffff" d="M 24 8 A 13.999979 16.000263 0 0 0 10 24 A 13.999979 16.000263 0 0 0 10.017578 24.414062 A 13.999979 16.000263 0 0 1 24 9 A 13.999979 16.000263 0 0 1 37.982422 24.585938 A 13.999979 16.000263 0 0 0 38 24 A 13.999979 16.000263 0 0 0 24 8 z M 30.986328 24.414062 A 6.9998001 9.9998896 0 0 1 24 34 A 6.9998001 9.9998896 0 0 1 17.013672 24.585938 A 6.9998001 9.9998896 0 0 0 17 25 A 6.9998001 9.9998896 0 0 0 24 35 A 6.9998001 9.9998896 0 0 0 31 25 A 6.9998001 9.9998896 0 0 0 30.986328 24.414062 z"/>
</svg>

<svg width="48" height="48" version="1.1" viewBox="0 0 48 48" xmlns="http://www.w3.org/2000/svg">
 <path d="m24 5c-10.202497-1.75e-5 -17.999846 9.271904-18 20 1.543e-4 10.728096 7.797503 20.000017 18 20 10.202497 1.7e-5 17.999846-9.271904 18-20-1.54e-4 -10.728096-7.797503-20.000018-18-20z" style="opacity:.2"/>
 <path d="m24 4c-10.202497-1.75e-5 -17.999846 9.271904-18 20 1.543e-4 10.728096 7.797503 20.000017 18 20 10.202497 1.7e-5 17.999846-9.271904 18-20-1.54e-4 -10.728096-7.797503-20.000018-18-20z" style="fill:#3a4b37"/>
 <path d="m24 9a13.999979 16.000263 0 0 0 -14 16 13.999979 16.000263 0 0 0 14 16 13.999979 16.000263 0 0 0 14 -16 13.999979 16.000263 0 0 0 -14 -16zm0 6a6.9998001 9.9998896 0 0 1 7 10 6.9998001 9.9998896 0 0 1 -7 10 6.9998001 9.9998896 0 0 1 -7 -10 6.9998001 9.9998896 0 0 1 7 -10z" style="opacity:.2"/>
 <path d="m24 8a13.999979 16.000263 0 0 0 -14 16 13.999979 16.000263 0 0 0 14 16 13.999979 16.000263 0 0 0 14 -16 13.999979 16.000263 0 0 0 -14 -16zm0 6a6.9998001 9.9998896 0 0 1 7 10 6.9998001 9.9998896 0 0 1 -7 10 6.9998001 9.9998896 0 0 1 -7 -10 6.9998001 9.9998896 0 0 1 7 -10z" style="fill:#a1eaa4"/>
 <path d="m24 4c-10.202497-1.75e-5 -17.999846 9.271904-18 20 2.4e-6 0.168297 0.0196181 0.33245 0.0234375 0.5 0.2396454-10.512935 7.9341175-19.500017 17.976562-19.5 10.042445-1.72e-5 17.736917 8.987065 17.976562 19.5 0.00382-0.16755 0.023436-0.331703 0.023438-0.5-1.54e-4 -10.728096-7.797503-20.000018-18-20z" style="fill:#ffffff;opacity:.1"/>
 <path d="M 24 8 A 13.999979 16.000263 0 0 0 10 24 A 13.999979 16.000263 0 0 0 10.017578 24.414062 A 13.999979 16.000263 0 0 1 24 9 A 13.999979 16.000263 0 0 1 37.982422 24.585938 A 13.999979 16.000263 0 0 0 38 24 A 13.999979 16.000263 0 0 0 24 8 z M 30.986328 24.414062 A 6.9998001 9.9998896 0 0 1 24 34 A 6.9998001 9.9998896 0 0 1 17.013672 24.585938 A 6.9998001 9.9998896 0 0 0 17 25 A 6.9998001 9.9998896 0 0 0 24 35 A 6.9998001 9.9998896 0 0 0 31 25 A 6.9998001 9.9998896 0 0 0 30.986328 24.414062 z" style="fill:#ffffff;opacity:.1"/>
</svg>
